!!!OTL: EM KUST MER UG EN MANTEL
!!!ARE: Europa, Mitteleuropa, Deutschland; Rumaenien, Siebenbuergen
!!!SCT: E0875
!!!YEM: Copyright 1995, estate of Helmut Schaffrath.
**kern
*ICvox
*Ivox
*M2/4
*k[f#]
*G:
{8d
=1
8g
8a
8b
8cc
=2
8dd
8ee
4dd}
=3
{8cc
8b
8cc
8dd
=4
4b
4r}
=5
{8g
8a
8b
8cc
=6
8dd
8ee
8dd
8cc}
=7
{8g
8a
8b
8cc
=8
8dd
8ee
8dd
8cc}
=9
{8b
8a
8b
8cc
=10
4dd
4cc}
=11
{8b
8a
8b
8a
=12
4g
8r}
==
!!!AGN: Hochzeits -, Ehestands - Lied
!!!ONB: ESAC (Essen Associative Code) Database: ERK2
!!!AMT: simple duple
!!!AIN: vox
!!!EED: Helmut Schaffrath
!!!EEV: 1.0
*-
